X:6
T:Polonäs ur S W Johanssons notbok
B:http://www.smus.se/earkiv/fmk/browselarge.php?lang=sw&katalogid=M+80&bildnr=00006
B:S W Johanssons notbok
R:Polonäs
O:Skåne
Z:Nils L
M:3/4
L:1/16
K:Ddor
dcde f2fa e2ef | d2db abag fgfe | dcde f2fa e2ef | d2db abag fgfe |
a2c'2 c'd'c'a f2f2 | g2g2 gbge c2c2 | f2fe dcde fefg | g2a2 agab a2a2 |
a2c'2 c'd'c'a f2f2 | g2g2 gbge c2c2 | fgfe dcde gefd | egec c2d2 d4 :|

